public/logo.svg

<svg viewBox="0 0 90 60" xmlns="http://www.w3.org/2000/svg">
    <rect width="90" height="60" rx="15" fill="#FF2056" />
    <path
        d="M35 15c0-1 1-2 2-2 .4 0 .8.1 1.1.3l23 15c.9.6 1.1 1.8.5 2.7-.2.2-.3.4-.5.5l-23 15c-.9.6-2.1.3-2.7-.6-.2-.3-.3-.7-.3-1.1V15z"
        fill="white" />
</svg>

<svg width="90" height="60" viewBox="0 0 90 60" fill="none" xmlns="http://www.w3.org/2000/svg">
    <g clip-path="url(#clip0_0_3)">
        <path
            d="M75 0H15C6.71573 0 0 6.71573 0 15V45C0 53.2843 6.71573 60 15 60H75C83.2843 60 90 53.2843 90 45V15C90 6.71573 83.2843 0 75 0Z"
            fill="white" />
        <path
            d="M35 15C35 14 36 13 37 13C37.4 13 37.8 13.1 38.1 13.3L61.1 28.3C62 28.9 62.2 30.1 61.6 31C61.4 31.2 61.3 31.4 61.1 31.5L38.1 46.5C37.2 47.1 36 46.8 35.4 45.9C35.2 45.6 35.1 45.2 35.1 44.8V15H35Z"
            fill="#FF2056" />
    </g>
    <defs>
        <clipPath id="clip0_0_3">
            <rect width="90" height="60" fill="white" />
        </clipPath>
    </defs>
</svg>
